packages/kaspersky-hexa-ui-icons/src/iconsSVGs/24/StatusQuestionSolid.svg

<svg xmlns="http://www.w3.org/2000/svg" width="24" height="24" fill="none" viewBox="0 0 24 24"><path fill="#000" fill-rule="evenodd" d="M12 22c5.5228 0 10-4.4772 10-10S17.5228 2 12 2 2 6.4772 2 12s4.4772 10 10 10m-.1166-13c-.7014 0-1.2737.5611-1.2876 1.2623-.011.5522-.4675.9909-1.0197.98s-.991-.4675-.98-1.0197C8.6318 8.4326 10.093 7 11.8835 7h.0798c1.8608 0 3.3693 1.5085 3.3693 3.3693v.3615a3.062 3.062 0 0 1-2.0784 2.8997l-.2543.0863c-.0033.5494-.4497.9939-1 .9939-.5523 0-1-.4477-1-1 0-.8534.5437-1.6119 1.3518-1.886l.2601-.0882a1.062 1.062 0 0 0 .7208-1.0057v-.3615c0-.7562-.613-1.3693-1.3693-1.3693zM13 16.9752c0 .5523-.4477 1-1 1s-1-.4477-1-1 .4477-1 1-1 1 .4477 1 1"/></svg>

<svg width="24" height="24" viewBox="0 0 24 24" fill="none" xmlns="http://www.w3.org/2000/svg">
<path fill-rule="evenodd" clip-rule="evenodd" d="M12 22C17.5228 22 22 17.5228 22 12C22 6.47715 17.5228 2 12 2C6.47715 2 2 6.47715 2 12C2 17.5228 6.47715 22 12 22ZM11.8834 9C11.182 9 10.6097 9.56114 10.5958 10.2623C10.5848 10.8145 10.1283 11.2532 9.57612 11.2423C9.02394 11.2313 8.58519 10.7748 8.59615 10.2226C8.63166 8.43258 10.0929 7 11.8834 7H11.9632C13.824 7 15.3325 8.50849 15.3325 10.3693V10.7308C15.3325 12.0428 14.4966 13.209 13.2541 13.6305L12.9998 13.7168C12.9965 14.2662 12.5501 14.7107 11.9998 14.7107C11.4475 14.7107 10.9998 14.263 10.9998 13.7107C10.9998 12.8573 11.5435 12.0988 12.3516 11.8247L12.6117 11.7365C13.0426 11.5903 13.3325 11.1858 13.3325 10.7308V10.3693C13.3325 9.61306 12.7195 9 11.9632 9H11.8834ZM13 16.9752C13 17.5275 12.5523 17.9752 12 17.9752C11.4477 17.9752 11 17.5275 11 16.9752C11 16.4229 11.4477 15.9752 12 15.9752C12.5523 15.9752 13 16.4229 13 16.9752Z" fill="black"/>
</svg>
